X:3560
T:Cross Reel
M:4/4
L:1/8
Q:1/4=220
C:Trad Shetland
S:Finish on A Part
R:reel
P:A,B,C,D
B:Fiddler's Fake Book
K:D
K:D
P:A
"D"fage f2 f2|"D"ABAF D3 f|"D"gfed "C"=c2 c2|[1"C"EDEF "G"G2 e2:|[2"C"ED
EF "G"G3 A||!
K:G
P:B
"G"B2 BG "D"AFAF|"G"B2 BG "D"A3 A|"G"B2 BG "D"AFAD|"D"EDEF "G"G3 D||!
K:G
P:C
"D"FGAc "G"BGBG|"D"AFAF d4|"D"FGAc "G"BGBG|"D"AFAF "G"G3 A||!
K:D
P:D
"D"defg afde|"D"fdfg a2 fe|"D"defg afdf|!
"C"e=cef g2 ge|"D"defg afde|"D"fdfg a2 ag||!


